!!!COM: Chopin, Frederic
!!!CDT: 1810///-1849///
!!!OTL: Mazurka in E Minor, Op. 17, No. 2
!!!OPS: Op. 17
!!!ONM: No. 2
!!!OMD: Lento ma non troppo
!!!ODT: 1833///
!!!PDT: 1834///
!!!PPP: Leipzig, Paris and London
!!!ODE: Lina Freppa
!!!AIN: piano
**kern	**kern	**dynam
*staff2	*staff1	*staff1
*clefF4	*clefG2	*clefG2
*k[f#]	*k[f#]	*k[f#]
*e:	*e:	*e:
*M3/4	*M3/4	*M3/4
*MM144	*MM144	*MM144
4r	(4b	.
=1	=1	=1
*ped	*	*
4EE	8.aL	f
.	16gJk	.
4G 4B	4f#	.
4G 4B	4e	.
.	.	.
*Xped	*	*
=2	=2	=2
*ped	*	*
4AA	2dd^	.
4A 4c 4e	.	.
4A 4c 4e	4cc	.
.	.	.
*Xped	*	*
=3	=3	=3
*^	*	*
(4c 4e	2.D	8.bL	.
.	.	16ak	.
4B 4d	.	8e	.
.	.	8f#J	.
4A 4c)	.	4d	.
*v	*v	*	*
=4	=4	=4
*ped	*	*
.	(8g/q	.
4GG	2g^: 2cc^:)	.
4G 4d	.	.
4r	[4b)	.
.	.	.
*Xped	*	*
=5	=5	=5
*ped	*	*
4BB'	8b`L\]	fz
.	16r	<
.	(16b'\ 16cc'\k	(
*clefG2	*	*
4B 4f# 4a	8b'\ 8cc#'\	(
.	8b\ 8ddJ\	[
4B 4f# 4a	[4b (4dd#)	>
.	.	]
*clefF4	*	*
*Xped	*	*
=6	=6	=6
*ped	*	*
4E'	8b`] 8ee`L)	.
.	16r	.
.	(16ff#k	.
*clefG2	*	*
4B 4g	8gg	.
.	8cccJ	.
4B 4g	4bb^	.
.	.	.
*clefF4	*	*
*Xped	*	*
=7	=7	=7
*^	*	*
4r	2.E	8aa#'L)	.
.	.	16r	.
.	.	(16ff#k	.
4A# 4c# 4f#	.	8aa#)	.
.	.	16r	.
.	.	(16aanJk	.
4An 4cn 4f#	.	4ff#)	.
=8	=8	=8	=8
4r	2.E	8aa'L	.
.	.	16r	.
.	.	(16ff#k	.
4A 4d#	.	8aa')	.
.	.	16r	.
.	.	(16ggJk	.
4G 4e	.	4ee)	.
*v	*v	*	*
=9	=9	=9
*ped	*	*
4BB	8b'\L	fz
.	16r	.
.	(16cc' 16b'k\	.
*clefG2	*	*
4B 4f# 4a	8b'\ 8cc#\'	.
.	8b'\ 8dd'J\	.
4B 4f# 4a	4b 4dd#)	>
.	.	]
*clefF4	*	*
*Xped	*	*
=10	=10	=10
*ped	*	*
(4E	(16eeLK	.
.	8ggg'J)	.
.	16r	.
4B 4g)	(8fff#mL	>
*Xped	*	*
.	8eee	)
4r	8ccc	)
.	8bbJ)	]
=11	=11	=11
*ped	*	*
4FF#	(8aa#L	f
.	8ccc#	.
4F# 4c# 4e	8bb 8ddd#	.
.	8gg#	.
4F# 4c# 4e	8ee)	.
.	16r	.
.	16ff# (16aa#Jk	.
*Xped	*	*
=12	=12	=12
*ped	*	*
.	8ff#/q 8aa#/q	.
4BB	2dd#^ 2bb^)	.
4B 4f#	.	.
!	!LO:S:a	!
4r	(4b^	.
*Xped	*	*
=13	=13	=13
*ped	*	*
4EE	8.anL	.
.	16gJk	.
4G 4B	4f#	.
4G 4B	4e	.
.	.	.
*Xped	*	*
=14	=14	=14
*ped	*	*
4AA	2dd^	.
4A 4c 4e	.	.
4A 4c 4e	4cc	.
.	.	.
*Xped	*	*
=15	=15	=15
*^	*	*
4c 4e	2.D	8.bL	.
.	.	16ak	.
4B 4d	.	8e	.
.	.	8f#J	.
4A 4c	.	4d	.
*v	*v	*	*
=16	=16	=16
*ped	*	*
.	(8g/q	.
4GG	2g:^ 2cc:^)	.
4G 4d	.	.
4r	[4b)	.
.	.	.
*Xped	*	*
=17	=17	=17
*ped	*	*
4BB'	8b\`L]	fz
.	16r	<
.	16b\' (16cc\'k	(
*clefG2	*	*
4B 4f# 4a	8b\' 8cc#\'	(
.	8b\' 8dd\'J	[
4B 4f# 4a	[4b (4dd#)	>
.	.	]
*clefF4	*	*
*Xped	*	*
=18	=18	=18
*ped	*	*
4E	8b`] 8ee`L)	.
.	16r	.
.	(16ff#k	.
*clefG2	*	*
4B 4g	8gg	.
.	8cccJ	.
4B 4g	4bb^	.
.	.	.
*clefF4	*	*
*ped	*	*
=19	=19	=19
*^	*	*
4r	2.E	8aa#'L)	.
.	.	16r	.
.	.	(16ff#k	.
4A# 4c# 4f#	.	8aa#)	.
.	.	16r	.
.	.	(16aanJk	.
4An 4cn 4f#	.	4ff#)	.
=20	=20	=20	=20
4r	2.E	8aa'L	.
.	.	16r	.
.	.	(16ff#k	.
4A 4d#	.	8aa')	.
.	.	16r	.
.	.	(16ggJk	.
4G 4e	.	4ee)	.
*v	*v	*	*
=21	=21	=21
*ped	*	*
4BB	8b'\L	fz
.	16r	.
.	16b\' (16cc\'k	.
*clefG2	*	*
4B 4f# 4a	8b\' 8cc#\'	.
.	8b\' 8dd\'J	.
4B 4f# 4a	4b^ 4dd#^)	.
.	.	.
*clefF4	*	*
*Xped	*	*
=22	=22	=22
*ped	*	*
(4E	(16eeLK	.
.	8ggg'J)	.
.	16r	.
4B 4g)	8fff#mL	>
.	(8eee	)
4r	8ccc	)
.	8bbJ)	]
*Xped	*	*
=23	=23	=23
*ped	*	*
!	!LO:TX:b:i:t=leggiero	!
4BB'	(8aa#L	.
.	8ff#J)	.
*clefG2	*	*
4B 4d# 4an	(12cccL	.
.	12aa#	.
.	12bbJ)	.
*	*Xtuplet	*
4B 4d# 4a	(12aanL	.
.	12bb-	.
.	12gg#J)	.
*clefF4	*	*
*Xped	*	*
=24	=24	=24
*ped	*	*
4E	(12aaL	.
.	12ggn	.
.	12ff#J)	.
*	*tuplet	*
2G^ 2B^ 2g^	[2ee	.
.	.	.
*Xped	*	*
=25||	=25||	=25||
*	*^	*
!	!LO:TX:a:i:t=dolce	!	!
4GG'	(8eeL]	4fn	p
.	8ddJ	.	.
4G 4d	4b	4f	.
[4G 4d	4a	4f	.
=26	=26	=26	=26
.	(16b/qLL	.	.
.	16a/qJJ	.	.
4C 4G]	2g)	4e	.
4C 4G	.	4e	.
[4C 4G	([4ee^	4e	.
=27	=27	=27	=27
!LO:S:a	!	!	!
(8A-/q	.	.	.
4C] 4G)	8eeL]	4fn	.
.	8ddJ	.	.
4C 4G	4b	4f	.
4C 4G	4a)	4f	.
=28	=28	=28	=28
.	(16b/qLL	.	.
.	16a/qJJ	.	.
4C 4G	2g)	4e	.
4C 4G	.	4e	.
4C [4A	4cc^	4e	.
=29	=29	=29	=29
*^	*	*	*
2A]	4D	(8.ccL	4fn	.
.	.	16bk	.	.
.	2AA 2E	8dd	2e	.
.	.	8ccJ	.	.
4c	.	4a^)	.	.
=30	=30	=30	=30	=30
2A	4D	(8.ccL	4fn	.
.	.	16bk	.	.
.	2AA 2E	8dd	2e	.
.	.	8ccJ	.	.
4c	.	4a)	.	.
=31	=31	=31	=31	=31
(8.B\L	2BB	8.g#L	4.d#	.
16A\k	.	16f#Xk	.	.
8.c#\	.	8.a	.	.
.	.	.	8ryy	.
16B\Jk	.	16d# 16g#Jk	.	.
4E\ 4G#\)	4ryy	(4e^	4ryy	.
*v	*v	*	*	*
*	*v	*v	*
=32	=32	=32
4e`	4ee`)	.
4e`	4ee`	.
4e^	[4ee^	.
=33	=33	=33
*	*^	*
4r	(8eeL]	4fn	.
.	8ddJ	.	.
4Gn'	4b	4f	.
[4G^	4a	4f	.
=34	=34	=34	=34
.	16b/qLL	.	.
.	16a/qJJ	.	.
4C 4G]	2g)	4e	.
4C 4G	.	4e	.
[4C 4G	[4ee	4e	.
=35	=35	=35	=35
!LO:S:a	!	!	!
(8A-/q	.	.	.
4C] 4G)	(8eeL]	4fn	.
.	8ddJ	.	.
4C 4G	4b	4f	.
4C 4G	4a	4f	.
=36	=36	=36	=36
.	16b/qLL	.	.
.	16a/qJJ	.	.
4C 4G	2g)	4e	.
4C 4G	.	4e	.
4C 4G	4cc^	4e	.
=37	=37	=37	=37
4D 4F#X	(8.bL	4c	.
.	16ak	.	.
4D 4F#	8b	4c	.
.	8aJ	.	.
[4GG [4D 4G	4d)	4B	.
=38	=38	=38	=38
4GG] 4D] 4F#	(8.bL	4c	>
.	16ak	.	]
4GG 4D 4F#	8b	4c	>
.	8a	.	]
4GG 4D 4F#	8b	4c	>
.	8aJ	.	]
=39	=39	=39	=39
4GG 4D 4G	4g)	4B	<
4GG 4E-	[2a-^	4c	(
4GG 4En	.	4c#	[
=40	=40	=40	=40
4GG 4Fn	2.a-]	4d	>
4GG 4E	.	4c#	)
4GG 4E-	.	4cn	]
=41	=41	=41	=41
4GG 4E-	(8.b-L	4c	.
.	16a-k	.	.
4GG 4E-	8b-	4c	.
.	8a-J	.	.
4GG 4D	4d)	4Bn	.
=42	=42	=42	=42
4GG 4E-	(8.b-L	4c	.
.	16a-k	.	.
4GG 4E-	8b-	4c	.
.	8a-	.	.
4GG 4E-	8b-	4c	.
.	8a-J	.	.
=43	=43	=43	=43
4GG 4D	4g')	4Bn	.
4GG 4E-	([2an^	4c	.
4GG 4En	.	4c#	<
=44	=44	=44	=44
4GG 4Fn	2.a]	4d	[
4GG 4E	.	4c#	>
4GG 4E-	.	4cn	]
=45	=45	=45	=45
4GG 4D	4g)	4B	<
4GG 4E-	(2a-^	4c	(
4GG 4En	.	4c#	[
=46	=46	=46	=46
4GG 4Fn	4g#)	4d	>
4GG 4E	(2an^	4c#	)
4GG 4E-	.	4cn	]
=47	=47	=47	=47
4GG 4D	4gn)	4Bn	.
4GG 4E-	([2an^	4c	.
4GG 4En	.	4c#	.
=48	=48	=48	=48
4GG 4Fn	2a]	4d	pp
4GG 4E	.	4c#	.
4GG 4E-	4a-^)	4cn	.
*	*v	*v	*
=49	=49	=49
!	!LO:S:a	!
4GG 4D	(4B 4g	<
4GG 4E-	4c 4a-	(
4GG 4E-	4c 4a-	[
=50	=50	=50
!	!LO:TX:a:i:t=stretto	!
4GG 4E-	4c 4a-	<
4GG 4En	4c# 4an	(
4GG 4E	4c# 4a	(
=51	=51	=51
4GG 4E	4c# 4a	(
4FF# 4E	4c# 4a#	(
4FF# 4E	4c# 4a#	(
=52	=52	=52
4FF# 4E	4c# 4a#	(
4BB 4E#	4d 4b	(
4BB/ 4F#/	4d# 4b)	[
=53	=53	=53
*ped	*	*
!	!LO:TX:a:i:t=a tempo	!
.	(16B/qLL	.
.	16e/qJJ	.
!	!LO:S:a	!
4EEn 4En	(8.anL)	f
.	16gJk	.
4G 4B	4f#	.
4G 4B	4e	.
.	.	.
*Xped	*	*
=54	=54	=54
*ped	*	*
4AA	2dd^	.
4A 4c 4e	.	.
4A 4c 4e	4cc	.
.	.	.
*Xped	*	*
=55	=55	=55
*^	*	*
4c (4e	2.D	8.bL	.
.	.	16ak	.
4B 4d	.	8e	.
.	.	8f#J	.
4A 4c)	.	4d	.
*v	*v	*	*
=56	=56	=56
*ped	*	*
.	(8g/q	.
4GG	2g:^ 2cc:^)	.
4G 4d	.	.
4r	[4b)	.
*Xped	*	*
=57	=57	=57
*ped	*	*
4BB	8b`L\]	.
.	16r	.
.	16b'\ (16cc'\k	.
*clefG2	*	*
4B 4f# 4a	8b'\ 8cc#'\	.
.	8b'\ 8dd'\J	.
4B 4f# 4a	[4b^ (4dd#^)	.
*clefF4	*	*
*Xped	*	*
=58	=58	=58
*ped	*	*
4E	8b`] 8ee`L)	.
.	16r	.
.	(16ff#k	.
*clefG2	*	*
4B 4g	8gg	.
.	8cccJ	.
4B 4g	(4bb^)	.
*clefF4	*	*
*Xped	*	*
=59	=59	=59
*^	*	*
4r	2.E	8aa#`L)	.
.	.	16r	.
.	.	(16ff#k	.
4A# 4c# 4f#	.	8aa#)	.
.	.	16r	.
.	.	(16aanJk	.
4An 4cn 4f#	.	4ff#)	.
=60	=60	=60	=60
4r	2.E	8aa`L	.
.	.	16r	.
.	.	(16ff#k	.
4A 4d#	.	8aa)	.
.	.	16r	.
.	.	(16ggJk	.
4G 4e	.	4ee)	.
*v	*v	*	*
=61	=61	=61
*ped	*	*
4BB	8b`\L	.
.	16r	.
.	16b\' (16cc\'k	.
*clefG2	*	*
4B 4f# 4a	8b\' 8cc#\'	.
.	8b\' 8dd\'J	.
4B 4f# 4a	4b^ 4dd#^)	.
*clefF4	*	*
*Xped	*	*
=62	=62	=62
*ped	*	*
(4E	(16eeLK	.
.	8ggg`J)	.
.	16r	.
4B 4g)	(8fff#mL	.
.	8eee	.
*Xped	*	*
4r	8ccc	.
.	8bbJ)	.
=63	=63	=63
4E	(8aa#L	p
.	8bb	.
4B 4d# 4an	8ccc	.
.	8aa#J)	.
4B 4d# 4a	(12bbL	.
.	12ff#	.
.	12aanJ)	.
=64	=64	=64
*ped	*	*
(4E	(16ggLK	.
.	8ggg`J)	.
.	16r	.
4B 4g)	(8fff#mL	.
.	8eee	.
4r	8ccc	.
.	8bbJ)	.
*Xped	*	*
=65	=65	=65
*ped	*	*
4E	(8aa#L	.
.	8bb	.
*clefG2	*	*
4B 4d# 4an 4b	8ccc	.
.	8aa#J)	.
4B 4d# 4a 4b	(12bbL	.
.	12ff#	.
.	12aanJ)	.
*clefF4	*	*
*Xped	*	*
=66	=66	=66
*ped	*	*
*	*8va	*
4E	(16ggLK	.
.	8eeee`J)	.
.	16r	.
*clefG2	*	*
.	(16cccc/qLL	.
.	16dddd/qJJ	.
!	!LO:TX:b:i:t=riten.	!
4B 4e 4g 4b	12ccccL)	.
.	12bbb	.
.	12gggJ	.
4r	12eeeL	.
.	12ccc	.
.	12bbJ	.
*clefF4	*	*
*	*X8va	*
*Xped	*	*
=67	=67	=67
*ped	*	*
4E	(8aa#L	.
.	8ff#J)	.
*clefG2	*	*
4B 4d# 4an 4b	(12cccL	.
.	12aa#	.
.	12bbJ)	.
4B 4d# 4a 4b	(12aanL	.
.	12bb-	.
.	12gg#J)	.
*clefF4	*	*
*Xped	*	*
=68	=68	=68
*ped	*	*
*^	*	*
4ryy	(2.E;	(12aaL	.
.	.	12ggn	.
.	.	12ff#J)	.
2B\; 2g\;)	.	2ee;	.
*v	*v	*	*
*Xped	*	*
==	==	==
*-	*-	*-
!!!SMS: Mikuli edition, G. Schirmer (1894-1898)
!!!ENC: Craig Stuart Sapp
!!!END: 2005/03/02/
!!!EEV: 2017/01/04/
